X:8
T:The three maids
T:The cruel brother
N:Simple tune
C:Traditional
M:3/2
L:1/4
K:G %Actually Lydian/Ionian hexatonic
D G G | G3 F E D | B,2 D2 EG | G3 G G G | d3 d e B |
d3 B d B | G3 F E D | B,2 D2D2 | D3 E G A | G3 |]

